src/imgweb/patita_izq.svg

<svg clip-rule="evenodd" fill-rule="evenodd" stroke-linecap="round" stroke-linejoin="round" viewBox="0 0 966.822 975.733" xmlns="http://www.w3.org/2000/svg"><g fill="#272330"><path d="m301.755 712.216c-9.37 14.483-53.738 8.087-70.856 8.087-73.106 0-166.2285-100.512-134.1216-174.172 4.2716-9.8 15.7576-25.07 26.5716-28.614 24.19-7.928 86.704-6.811 106.284 12.441 38.144 37.504 96.572 102.893 80.979 164.219-1.789 7.037-5.298 12.538-8.857 18.039z"/><path d="m342.755 438.421c-15.535-2.265-29.405-8.297-43.653-13.685-42.609-16.113-78.073-31.67-101.223-73.401-19.727-35.559-5.708-100.971 30.367-120.676 26.99-14.743 52.078 5.384 72.121 21.149 41.235 32.435 76.74 79.931 87.306 131.873 5.81 28.565-13.009 59.392-44.918 54.74z"/><path d="m499.304 76.5525c-1.893.9305-13.13 2.8708-16.449 4.3543-8.208 3.6682-8.132 3.7124-15.184 9.9527-18.215 16.1195-25.305 37.2135-25.305 60.9605 0 21.339-1.766 43.829 1.265 64.692 6.42 44.19 49.508 117.125 103.754 108.235 28.109-4.606 38.519-32.939 45.551-55.983 13.976-45.808 26.844-111.7-12.653-150.535-19.604-19.2745-47.086-58.3388-80.979-41.6765z"/><path d="m766.831 355.778c-10.831.235-24.127-49.633-27.204-59.716-15.268-50.041 17.088-158.084 91.102-126.896 53.663 22.613 58.257 143.828 26.571 185.368-11.704 15.344-41.767 31.1-62 26.126-5.918-1.455-17.523-5.97-21.51-11.197-2.353-3.085-6.689-13.69-6.959-13.685z"/><path d="m455.575 478.167c-1.534-5.129-30.104 37.9-31.63 40.302-18.418 29.015-30.383 62.607-37.387 96.296-20.42 98.225-28.805 260.466 67.97 320.218 33.44 20.647 111.259 36.035 147.054 15.894 15.341-8.632 18.57-22.586 25.965-37.115 17.217-33.828 23.586-72.812 34.854-109.191 8.126-26.237 10.454-53.877 33.667-71.114 19.377-14.389 46.435-13.82 69.094-14.621 4.626-.163 16.9 5.477 19.716 3.958 9.182-4.953 19.281-1.584 30.442-2.224 41.532-2.384 88.351-5.788 109.569-47.479 3.384-6.649 9.265-11.945 11.401-19.421 5.232-18.314 3.129-37.606 2.967-56.469-.876-102.073-81.792-143.043-166.922-157.569-23.217-3.962-44.39-17.964-68.179-19.943-20.326-1.691-41.515-2.929-61.462-6.333-27.289-4.657-55.605 5.442-81.98 9.158-7.303 1.028-14.403 6.551-21.742 6.973-10.84.622-26.472 4.93-35.819 10.802-11.028 6.929-24.503 11.74-34.034 21.197-3.525 3.497-7.289 5.954-10.209 10.128-1.107 1.583-3.308 6.642-3.335 6.553z"/></g></svg>

<?xml version="1.0" encoding="UTF-8" standalone="no"?> <!-- Created with Vectornator for iOS (http://vectornator.io/) --><!DOCTYPE svg PUBLIC "-//W3C//DTD SVG 1.1//EN" "http://www.w3.org/Graphics/SVG/1.1/DTD/svg11.dtd">
<svg height="100%" style="fill-rule:evenodd;clip-rule:evenodd;stroke-linecap:round;stroke-linejoin:round;" xmlns:xlink="http://www.w3.org/1999/xlink" xmlns="http://www.w3.org/2000/svg" xml:space="preserve" width="100%" xmlns:vectornator="http://vectornator.io" version="1.1" viewBox="0 0 966.822 975.733">
<metadata>
<vectornator:setting key="DimensionsVisible" value="1"/>
<vectornator:setting key="PencilOnly" value="0"/>
<vectornator:setting key="SnapToPoints" value="0"/>
<vectornator:setting key="OutlineMode" value="0"/>
<vectornator:setting key="CMYKEnabledKey" value="0"/>
<vectornator:setting key="RulersVisible" value="1"/>
<vectornator:setting key="SnapToEdges" value="0"/>
<vectornator:setting key="GuidesVisible" value="1"/>
<vectornator:setting key="DisplayWhiteBackground" value="0"/>
<vectornator:setting key="doHistoryDisabled" value="0"/>
<vectornator:setting key="SnapToGuides" value="1"/>
<vectornator:setting key="TimeLapseWatermarkDisabled" value="0"/>
<vectornator:setting key="Units" value="Pixels"/>
<vectornator:setting key="DynamicGuides" value="0"/>
<vectornator:setting key="IsolateActiveLayer" value="0"/>
<vectornator:setting key="SnapToGrid" value="0"/>
</metadata>
<defs/>
<g id="Capa 1" vectornator:layerName="Capa 1">
<path d="M301.755+712.216C292.385+726.699+248.017+720.303+230.899+720.303C157.793+720.303+64.6705+619.791+96.7774+546.131C101.049+536.331+112.535+521.061+123.349+517.517C147.539+509.589+210.053+510.706+229.633+529.958C267.777+567.462+326.205+632.851+310.612+694.177C308.823+701.214+305.314+706.715+301.755+712.216Z" opacity="1" fill="#272330"/>
<path d="M342.755+438.421C327.22+436.156+313.35+430.124+299.102+424.736C256.493+408.623+221.029+393.066+197.879+351.335C178.152+315.776+192.171+250.364+228.246+230.659C255.236+215.916+280.324+236.043+300.367+251.808C341.602+284.243+377.107+331.739+387.673+383.681C393.483+412.246+374.664+443.073+342.755+438.421Z" opacity="1" fill="#272330"/>
<path d="M499.304+76.5525C497.411+77.483+486.174+79.4233+482.855+80.9068C474.647+84.575+474.723+84.6192+467.671+90.8595C449.456+106.979+442.366+128.073+442.366+151.82C442.366+173.159+440.6+195.649+443.631+216.512C450.051+260.702+493.139+333.637+547.385+324.747C575.494+320.141+585.904+291.808+592.936+268.764C606.912+222.956+619.78+157.064+580.283+118.229C560.679+98.9545+533.197+59.8902+499.304+76.5525Z" opacity="1" fill="#272330"/>
<path d="M766.831+355.778C756+356.013+742.704+306.145+739.627+296.062C724.359+246.021+756.715+137.978+830.729+169.166C884.392+191.779+888.986+312.994+857.3+354.534C845.596+369.878+815.533+385.634+795.3+380.66C789.382+379.205+777.777+374.69+773.79+369.463C771.437+366.378+767.101+355.773+766.831+355.778Z" opacity="1" fill="#272330"/>
<path d="M455.575+478.167C454.041+473.038+425.471+516.067+423.945+518.469C405.527+547.484+393.562+581.076+386.558+614.765C366.138+712.99+357.753+875.231+454.528+934.983C487.968+955.63+565.787+971.018+601.582+950.877C616.923+942.245+620.152+928.291+627.547+913.762C644.764+879.934+651.133+840.95+662.401+804.571C670.527+778.334+672.855+750.694+696.068+733.457C715.445+719.068+742.503+719.637+765.162+718.836C769.788+718.673+782.062+724.313+784.878+722.794C794.06+717.841+804.159+721.21+815.32+720.57C856.852+718.186+903.671+714.782+924.889+673.091C928.273+666.442+934.154+661.146+936.29+653.67C941.522+635.356+939.419+616.064+939.257+597.201C938.381+495.128+857.465+454.158+772.335+439.632C749.118+435.67+727.945+421.668+704.156+419.689C683.83+417.998+662.641+416.76+642.694+413.356C615.405+408.699+587.089+418.798+560.714+422.514C553.411+423.542+546.311+429.065+538.972+429.487C528.132+430.109+512.5+434.417+503.153+440.289C492.125+447.218+478.65+452.029+469.119+461.486C465.594+464.983+461.83+467.44+458.91+471.614C457.803+473.197+455.602+478.256+455.575+478.167Z" opacity="1" fill="#272330"/>
</g>
</svg>
